packages/webapp/public/images/template-logos/gitlab.svg

<svg width="62" height="62" viewBox="0 0 62 62" fill="none" xmlns="http://www.w3.org/2000/svg">
<path d="M30.9741 51.481L39.071 26.5752H22.8889L30.9741 51.481Z" fill="#E24329"/>
<path d="M11.5478 26.5752L9.08215 34.1419C8.85902 34.829 9.09998 35.5874 9.6889 36.0157L30.9741 51.4809L11.5478 26.5752Z" fill="#FCA326"/>
<path d="M11.5479 26.5751H22.8889L18.008 11.5755C17.7582 10.8082 16.6696 10.8082 16.4108 11.5755L11.5479 26.5751Z" fill="#E24329"/>
<path d="M50.4121 26.5752L52.8689 34.1419C53.0921 34.829 52.8511 35.5874 52.2622 36.0157L30.9741 51.481L50.4121 26.5752Z" fill="#FCA326"/>
<path d="M50.412 26.5751H39.071L43.9429 11.5755C44.1927 10.8082 45.2814 10.8082 45.5402 11.5755L50.412 26.5751Z" fill="#E24329"/>
<path d="M30.9741 51.481L39.071 26.5752H50.4121L30.9741 51.481Z" fill="#FC6D26"/>
<path d="M30.9741 51.481L11.5479 26.5752H22.8889L30.9741 51.481Z" fill="#FC6D26"/>
</svg>

<svg xmlns="http://www.w3.org/2000/svg" width="62" height="62" fill="none"><path d="M30.999 51.526l8.106-24.933h-16.2l8.094 24.934z" fill="#e24329"/><path d="M11.551 26.593l-2.468 7.575a1.68 1.68 0 0 0 .607 1.876l21.309 15.482-19.448-24.933z" fill="#fca326"/><path d="M11.551 26.593h11.354l-4.886-15.016c-.25-.768-1.34-.768-1.599 0l-4.868 15.016z" fill="#e24329"/><path d="M50.458 26.593l2.46 7.575a1.68 1.68 0 0 1-.607 1.876L30.999 51.526l19.46-24.933z" fill="#fca326"/><path d="M50.458 26.593H39.105l4.877-15.016c.25-.768 1.34-.768 1.599 0l4.877 15.016z" fill="#e24329"/><g fill="#fc6d26"><path d="M30.999 51.526l8.106-24.933h11.354l-19.46 24.934z"/><path d="M30.999 51.526L11.551 26.593h11.354l8.094 24.934z"/></g></svg>
